!!!COM: Palestrina, Giovanni Perluigi da
!!!OPR: Te Deum laudamus
!!!OTL: Credo
**kern	**kern	**kern	**kern	**kern	**kern
*Ibass	*Itenor	*Itenor	*Icalto	*Icalto	*Icant
!Bassus	!Tenor 2	!Tenor 1	!Altus 2	!Altus 1	!Cantus
*clefF4	*clefGv2	*clefGv2	*clefG2	*clefG2	*clefG2
*k[]	*k[]	*k[]	*k[]	*k[]	*k[]
*A:aeo	*A:aeo	*A:aeo	*A:aeo	*A:aeo	*A:aeo
*M4/2	*M4/2	*M4/2	*M4/2	*M4/2	*M4/2
=1	=1	=1	=1	=1	=1
1r	0r	0r	1e	0r	1r
[1A	.	.	2c	.	[1e
.	.	.	2A	.	.
=2	=2	=2	=2	=2	=2
1A]	0r	0r	2c	1r	1e]
.	.	.	2c	.	.
1E	.	.	1B	1e	1g#
=3	=3	=3	=3	=3	=3
1AA	0r	0r	4A	2c	0a
.	.	.	4B	.	.
.	.	.	4c	2A	.
.	.	.	4d	.	.
4AA	.	.	1e	2c	.
4BB	.	.	.	.	.
4C	.	.	.	2c	.
4D	.	.	.	.	.
=4	=4	=4	=4	=4	=4
2E	0r	1e	0r	1B	1g#
2E	.	.	.	.	.
2.F	.	2c	.	1A	2a
.	.	2A	.	.	[2cc
4G	.	.	.	.	.
=5	=5	=5	=5	=5	=5
1A	0r	2c	0e	0r	4cc]
.	.	.	.	.	4b
.	.	2c	.	.	1a
1E	.	1B	.	.	.
.	.	.	.	.	2g#
=6	=6	=6	=6	=6	=6
0AA	0E	4A	2c	1e	0a
.	.	4B	.	.	.
.	.	4c	2A	.	.
.	.	4B	.	.	.
.	.	4A	1c	2c	.
.	.	4G#	.	.	.
.	.	2A	.	2A	.
=7	=7	=7	=7	=7	=7
2r	1G#	1E	1B	1e	0r
2E	.	.	.	.	.
2F	1A	1r	2A	2c	.
2D	.	.	[2d	[2f	.
=8	=8	=8	=8	=8	=8
1F	1A	1r	4d]	4f]	0r
.	.	.	4c	4e	.
.	.	.	2A	4c	.
.	.	.	.	4d	.
1E	1G#	2r	1B	1e	.
.	.	2e	.	.	.
=9	=9	=9	=9	=9	=9
1.AA	2A	2c	1A	1.e	0r
.	1c	2A	.	.	.
.	.	2c	1r	.	.
2BB	[2B	2d	.	2d	.
=10	=10	=10	=10	=10	=10
2.C	4B]	1e	0r	1c	0r
.	4A	.	.	.	.
.	1A	.	.	.	.
4D	.	.	.	.	.
1E	.	1e	.	1B	.
.	2G#	.	.	.	.
=11	=11	=11	=11	=11	=11
0AA	0A	2c#	2r	1A	1r
.	.	1c#	1e	.	.
.	.	.	.	1r	[1a
.	.	2c#	2e	.	.
=12	=12	=12	=12	=12	=12
0r	0r	2.d	2.f#	0r	2a]
.	.	.	.	.	2a
.	.	4d	4f#	.	.
.	.	1G	2d	.	2.b
.	.	.	[2g	.	.
.	.	.	.	.	4b
=13	=13	=13	=13	=13	=13
0r	0r	2.c	4g]	0r	2g
.	.	.	4f	.	.
.	.	.	4e	.	1cc
.	.	4B	4d	.	.
.	.	2A	4e	.	.
.	.	.	4f#	.	.
.	.	2G	[2g	.	2b
=14	=14	=14	=14	=14	=14
1r	1r	1d	2g]	1r	1a
.	.	.	2f#	.	.
2r	2r	1G	2.g	1B	1g
[2E	[2G	.	.	.	.
.	.	.	4f	.	.
=15	=15	=15	=15	=15	=15
2E]	2G]	1r	2.e	2B	0r
2E	2G	.	.	1c	.
.	.	.	4d	.	.
1F	1A	2r	1c	.	.
.	.	2A	.	2A	.
=16	=16	=16	=16	=16	=16
2D	2F	2A	0r	2.d	0r
1G	4G	2B	.	.	.
.	4A	.	.	4c	.
.	4B	2G	.	2B	.
.	4c	.	.	.	.
2F	[2d	[2A	.	2A	.
=17	=17	=17	=17	=17	=17
1E	2d]	4A]	0r	2B	1r
.	.	4G	.	.	.
.	2c#	1G	.	4A	.
.	.	.	.	4G	.
[1D	1d	.	.	[1A	2r
.	.	4F#	.	.	[2a
.	.	4E	.	.	.
=18	=18	=18	=18	=18	=18
1D]	1d	2F#	2r	1A]	2a]
.	.	2F#	1d	.	2a
1r	1B	1G	.	1G	1b
.	.	.	2d	.	.
=19	=19	=19	=19	=19	=19
0r	1c	1C	1e	0r	2g
.	.	.	.	.	1cc
.	2A	1r	2c	.	.
.	[2d	.	[2f	.	2b
=20	=20	=20	=20	=20	=20
0r	2d]	1r	2f]	1r	1a
.	1c	.	2e	.	.
.	.	1G	1d	2r	1g
.	2B	.	.	2d	.
=21	=21	=21	=21	=21	=21
0r	1c	2C	2r	1e	0g
.	.	1c	2c	.	.
.	2G	.	1d	4d	.
.	.	.	.	8e	.
.	.	.	.	8f	.
.	2G	2B	.	[2g	.
=22	=22	=22	=22	=22	=22
1r	2.c	1A	2e	2g]	1a
.	.	.	4d	2f#	.
.	8B	.	4c	.	.
.	8c	.	.	.	.
2r	2d	1G	2B	2g	2b
[2C	2e	.	2G	2g	[2cc
=23	=23	=23	=23	=23	=23
4C]	1c	2r	2r	2e	4cc]
4C	.	.	.	.	4cc
2C	.	2.G	2.g	2e	2cc
2.E	2r	.	.	1e	[1b
.	.	4G	4g	.	.
.	[2G	2G	2g	.	.
4F	.	.	.	.	.
=24	=24	=24	=24	=24	=24
1G	4G]	2.B	1g	1d	1b]
.	4G	.	.	.	.
.	2G	.	.	.	.
.	.	4c	.	.	.
1D	1A	1d	1f#	2r	1a
.	.	.	.	[2d	.
=25	=25	=25	=25	=25	=25
1.GG	1G	1B	2g	4d]	2.dd
.	.	.	.	4c	.
.	.	.	2g	4B	.
.	.	.	.	4A	4cc
.	1D	[1d	2g	2G	2b
2D	.	.	2f	2A	[2a
=26	=26	=26	=26	=26	=26
2F	2D	2d]	0d	2A	2a]
2G	1d	2B	.	2B	1g
1D	.	2A	.	[1d	.
.	2A	2A	.	.	2f#
=27	=27	=27	=27	=27	=27
2r	1B	1G	2r	1d]	0g
1G	.	.	1d	.	.
.	2r	1r	.	2.B	.
2G	[2G	.	2d	.	.
.	.	.	.	4B	.
=28	=28	=28	=28	=28	=28
2E	2G]	0r	2e	2B	0r
2E	2G	.	2e	2c#	.
1D	2A	.	1f	1d	.
.	2B	.	.	.	.
=29	=29	=29	=29	=29	=29
0C	1c	1r	1e	2G	1r
.	.	.	.	1g	.
.	1c	2r	1e	.	2r
.	.	[2E	.	2g	[2g
=30	=30	=30	=30	=30	=30
0r	0r	2E]	2B	2e	2g]
.	.	2E	1c	2e	2g
.	.	2F	.	1d	2a
.	.	2G	2B	.	2b
=31	=31	=31	=31	=31	=31
0r	0r	2A	2.A	2.c	2cc
.	.	2.c	.	.	2.ee
.	.	.	4B	4d	.
.	.	.	1c	2e	.
.	.	4B	.	.	4dd
.	.	4A	.	[2f	4cc
.	.	4G	.	.	4b
=32	=32	=32	=32	=32	=32
0r	0r	2.A	1.c	4f]	2.cc
.	.	.	.	4e	.
.	.	.	.	1e	.
.	.	4G	.	.	4b
.	.	2F	.	.	2a
.	.	2F	2A	2d	2a
=33	=33	=33	=33	=33	=33
2r	2r	1E	1B	1e	2g
2E	2e	.	.	.	2g
2G	2d	1r	2r	1r	2b
2G	2e	.	2g	.	2b
=34	=34	=34	=34	=34	=34
1A	1c	1r	2e	1r	1cc
.	.	.	2f#	.	.
[1G	1d	2r	[1g	2r	[1b
.	.	2G	.	2B	.
=35	=35	=35	=35	=35	=35
1G]	1r	2B	1g]	2d	1b]
.	.	2B	.	2d	.
2r	2r	1c	2g	1e	1r
2C	2c	.	2e	.	.
=36	=36	=36	=36	=36	=36
2E	2B	1G	2g	2e	0r
2E	2c	.	2g	2e	.
2F	2A	1r	2a	2c	.
2F	2A	.	2a	2d	.
=37	=37	=37	=37	=37	=37
0E	1B	2r	2.g	2e	2r
.	.	2E	.	2e	2g
.	.	.	4f	.	.
.	1r	2G	1e	2B	2b
.	.	2G	.	[2e	2b
=38	=38	=38	=38	=38	=38
1r	1r	2A	2r	2e]	2cc
.	.	2A	2c	2f#	2cc
2r	2r	1G	2d	[1g	1b
[2E	2B	.	[2e	.	.
=39	=39	=39	=39	=39	=39
2E]	2c	0r	2e]	2g]	0r
2F	1d	.	4d	4f	.
.	.	.	4c	4e	.
1G	.	.	4B	4d	.
.	.	.	4A	4c	.
.	[2e	.	[2g	2B	.
=40	=40	=40	=40	=40	=40
1A	2e]	1r	2g]	1c	0r
.	4d	.	2f#	.	.
.	4c	.	.	.	.
1G	1d	2r	1g	2B	.
.	.	2B	.	2d	.
=41	=41	=41	=41	=41	=41
0r	0r	2B	0r	2d	2r
.	.	2c	.	2e	2a
.	.	1d	.	1f	2a
.	.	.	.	.	2b
=42	=42	=42	=42	=42	=42
1A	2r	2.c	1r	0e	4cc
.	.	.	.	.	4b
.	2A	.	.	.	4cc
.	.	4B	.	.	4dd
2c	2A	2A	2r	.	2cc
2G	2B	2E	2e	.	[2b
=43	=43	=43	=43	=43	=43
1A	1c	2r	2e	0r	4b]
.	.	.	.	.	4a
.	.	2A	2f	.	1a
1E	1B	2B	1e	.	.
.	.	2B	.	.	2g#
=44	=44	=44	=44	=44	=44
1AA	2r	1c#	1e	1r	1a
.	1A	.	.	.	.
[1D	.	1d	1r	[1f#	2r
.	2A	.	.	.	[2a
=45	=45	=45	=45	=45	=45
2D]	2A	0r	1.d	2f#]	2a]
2D	2A	.	.	2f#	2a
2D	1d	.	.	2f#	2a
2D	.	.	2d	2f#	2a
=46	=46	=46	=46	=46	=46
1G	1B	0r	2d	2g	1b
.	.	.	2d	2.g	.
[1C	2.c	.	1e	.	1g
.	.	.	.	4f	.
.	.	.	.	4e	.
.	4B	.	.	4d	.
=47	=47	=47	=47	=47	=47
1C]	2A	1r	1e	1c	2.cc
.	2G	.	.	.	.
.	.	.	.	.	4b
1r	2F	2.c	2f	1r	2a
.	2E	.	2g	.	2g
.	.	4B	.	.	.
=48	=48	=48	=48	=48	=48
0r	2F	2A	2.c	0r	2f
.	2C	2G	.	.	2e
.	.	.	4c	.	.
.	1r	2F	2c	.	2a
.	.	2E	2c	.	[2g
=49	=49	=49	=49	=49	=49
1r	1r	1A	1c	2r	2g]
.	.	.	.	2c	2f#
2r	2r	1G	2d	2B	[1g
2C	[2G	.	2e	2c	.
=50	=50	=50	=50	=50	=50
2BB	2G]	0r	2d	2d	0g]
2.C	2G	.	2.c	1e	.
.	1c	.	.	.	.
4C	.	.	4c	.	.
2C	.	.	2e	[2g	.
=51	=51	=51	=51	=51	=51
2G	2B	0r	2d	2g]	0r
2A	2c	.	2c	2f#	.
1G	2d	.	1B	1g	.
.	2d	.	.	.	.
=52	=52	=52	=52	=52	=52
2r	1B	1G	2r	2r	0r
2G	.	.	2d	2g	.
2D	1r	2A	2d	2f#	.
2G	.	2B	2d	2g	.
=53	=53	=53	=53	=53	=53
1C	0r	1c	1g	1e	0r
2G	.	2B	2g	2d	.
2G	.	2B	2g	2d	.
=54	=54	=54	=54	=54	=54
1C	2r	2c	2e	1g	2r
.	2c	2c	2e	.	2g
1r	2G	2B	2d	1r	2g
.	2c	2c	2e	.	2g
=55	=55	=55	=55	=55	=55
0r	1F	1c	1f	0r	1a
.	2C	2c	2e	.	2g
.	2C	2c	2e	.	2g
=56	=56	=56	=56	=56	=56
1r	1G	1B	1d	0r	1g
2r	4C	1c	[1g	.	2e
.	4D	.	.	.	.
2c	4E	.	.	.	2ee
.	4F	.	.	.	.
=57	=57	=57	=57	=57	=57
4B	1G	1r	1g]	2r	4dd
4A	.	.	.	.	4cc
4G	.	.	.	2d	4b
4F	.	.	.	.	4a
2E	2r	2r	1r	1e	2g
2C	2c	2e	.	.	2g
=58	=58	=58	=58	=58	=58
1GG	4B	4d	2r	2g	1b
.	4A	4c	.	.	.
.	4G	4B	2g	2d	.
.	4F	4A	.	.	.
1C	2E	2G	4g	1e	1cc
.	.	.	4f	.	.
.	2C	2G	4e	.	.
.	.	.	4d	.	.
=59	=59	=59	=59	=59	=59
2AA	2.c	1A	2c	1e	2cc
2A	.	.	2A	.	2cc
.	4d	.	.	.	.
4G	1e	1E	1B	1r	4b
4F	.	.	.	.	4a
4E	.	.	.	.	4g
4D	.	.	.	.	4f
=60	=60	=60	=60	=60	=60
2C	1e	1E	1c	2r	2e
2AA	.	.	.	2a	4c
.	.	.	.	.	4d
1E	2e	2r	1B	4g	4e
.	.	.	.	4f	4f
.	[2E	2e	.	4e	2g
.	.	.	.	4d	.
=61	=61	=61	=61	=61	=61
1AA	2E]	4e	2r	2c	2a
.	.	4d	.	.	.
.	2.A	4c	1e	2A	1cc
.	.	4B	.	.	.
2AA	.	2A	.	1e	.
.	4A	.	.	.	.
2E	2G	2B	[2g	.	[2b
=62	=62	=62	=62	=62	=62
2.C	0E	1c	4g]	0e	4b]
.	.	.	4f	.	4a
.	.	.	2.e	.	1a
4D	.	.	.	.	.
1E	.	1B	.	.	.
.	.	.	4d	.	.
.	.	.	2B	.	2g#
=63	=63	=63	=63	=63	=63
0AA	0E	0A	0c#	0e	0a
=64	=64	=64	=64	=64	=64
0A	0r	0c#	0e	0r	0a
=65	=65	=65	=65	=65	=65
1D	0r	1d	1f	0r	1a
1E	.	1B	1e	.	1g#
=66	=66	=66	=66	=66	=66
1A	0r	1c	1e	0r	1a
1G	.	1d	1g	.	1b
=67	=67	=67	=67	=67	=67
0C	0c	0e	1g	1r	1cc
.	.	.	1e	1g	1cc
=68	=68	=68	=68	=68	=68
0r	1F	0r	1f	1a	1cc
.	1G	.	1d	1g	1b
=69	=69	=69	=69	=69	=69
0r	1c	0r	1e	1g	1cc
.	1A	.	1f#	1c	1cc
=70	=70	=70	=70	=70	=70
1r	0G	1r	1g	1d	1b
[1G	.	[1B	[1d	[1g	[1dd
=71	=71	=71	=71	=71	=71
2G]	2r	2B]	2d]	2g]	2dd]
2G	1G	2B	2d	2g	2dd
[1C	.	[1c	[1e	1g	[1cc
.	2G	.	.	.	.
=72	=72	=72	=72	=72	=72
1C]	1E	1c]	1e]	1G	1cc]
1GG	1G	2d	1d	2.B	1b
.	.	[2G	.	.	.
.	.	.	.	4c	.
=73	=73	=73	=73	=73	=73
1D	1A	2G]	0r	1.d	1a
.	.	4F#	.	.	.
.	.	4E	.	.	.
1D	1A	2F#	.	.	1a
.	.	2F#	.	2d	.
=74	=74	=74	=74	=74	=74
0GG	0B	1G	1r	0d	1g
.	.	1G	1d	.	[1g
=75	=75	=75	=75	=75	=75
0r	0r	1c	1e	1r	1g]
.	.	1A	1f#	1c	1a
=76	=76	=76	=76	=76	=76
1GG	1r	1G	0g	1d	1b
1C	1G	1E	.	1e	[1cc
=77	=77	=77	=77	=77	=77
1AA	1A	1r	1c	1f	1cc]
1GG	1B	1G	1d	2.g	1b
.	.	.	.	4f	.
=78	=78	=78	=78	=78	=78
0AA	0c	2.C	2r	4e	2a
.	.	.	.	4d	.
.	.	.	2e	4c	2.cc
.	.	4D	.	4B	.
.	.	1E	1e	1A	.
.	.	.	.	.	4b
.	.	.	.	.	[2a
=79	=79	=79	=79	=79	=79
0E	0B	1E	0e	1B	2a]
.	.	.	.	.	4g#
.	.	.	.	.	4f#
.	.	2r	.	2r	1g#
.	.	[2E	.	2e	.
=80	=80	=80	=80	=80	=80
1AA	[0A	2E]	1c#	2e	[0a
.	.	2.A	.	2e	.
1D	.	.	1d	2f	.
.	.	4G	.	.	.
.	.	2F	.	[2d	.
=81	=81	=81	=81	=81	=81
0AA	1A_	0E	0e	2d]	0a]
.	.	.	.	4c#	.
.	.	.	.	4B	.
.	1A_	.	.	1c#	.
=82	=82	=82	=82	=82	=82
0D	0A]	0D	0f#	0d	0a
*	*	*	*	*-	*-
!! Crucifixus
*Ibass	*Itenor	*Icalto	*Icalto
!Bassus	!Tenor	!Altus 2	!Altus 1
*clefF4	*clefGv2	*clefG2	*clefG2
*k[]	*k[]	*k[]	*k[]
*A:aeo	*A:aeo	*A:aeo	*A:aeo
*M4/2	*M4/2	*M4/2	*M4/2
=83	=83	=83	=83
0r	0r	1r	0A
.	.	[1e	.
=84	=84	=84	=84
0r	0r	2e]	1c
.	.	2e	.
.	.	1d	1B
=85	=85	=85	=85
1r	0A	2.c	2A
.	.	.	1e
.	.	4d	.
[1A	.	2e	.
.	.	[2e	2c
=86	=86	=86	=86
2A]	1c	2e]	2e
2A	.	2c	2f
1G	1B	2d	1g
.	.	2e	.
=87	=87	=87	=87
2.F	1A	1f	2c
.	.	.	1d
4G	.	.	.
1A	2r	1e	.
.	[2A	.	4c
.	.	.	4B
=88	=88	=88	=88
1r	2A]	2.e	2c
.	2G	.	2B
.	.	4d	.
2r	2A	2c	[1e
[2E	2B	2G	.
=89	=89	=89	=89
2E]	2.c	1g	1e]
2C	.	.	.
.	4B	.	.
2D	2A	2f	2d
2E	2G	[2e	[2c
=90	=90	=90	=90
1F	1A	2e]	4c]
.	.	.	4B
.	.	2d	1A
1E	1B	[1e	.
.	.	.	2G#
=91	=91	=91	=91
2r	2c	0e]	1A
2AA	2A	.	.
2.A	2.c	.	2r
.	.	.	2A
4G	4c	.	.
=92	=92	=92	=92
2A	2c	0r	2.e
2G	2B	.	.
.	.	.	4e
4E	4G	.	2e
4F	4A	.	.
4G	4B	.	2e
4E	4G	.	.
=93	=93	=93	=93
2F	4A	2r	1c
.	4B	.	.
2E	1c	2c	.
1D	.	2.f	1d
.	2B	.	.
.	.	4f	.
=94	=94	=94	=94
0C	1c	2f	2r
.	.	2e	2g
.	1r	4c	4e
.	.	4d	4f
.	.	4e	4g
.	.	4c	4e
=95	=95	=95	=95
0r	2r	2d	2f
.	1A	2c	2e
.	.	1B	1d
.	2G	.	.
=96	=96	=96	=96
2r	1.c	1A	1e
1A	.	.	.
.	.	2r	1r
2G	2B	[2d	.
=97	=97	=97	=97
2F	2A	2d]	0r
2E	2G	2c	.
2D	4A	2f	.
.	4B	.	.
2C	4c	2e	.
.	4A	.	.
=98	=98	=98	=98
2D	4B	2d	1r
.	4A	.	.
2AA	1A	2c	.
1BB	.	2.d	2r
.	2G#	.	[2d
.	.	4e	.
=99	=99	=99	=99
1AA	0A	2f	2d]
.	.	2e	2c
4D	.	2d	1f
4E	.	.	.
4F	.	4A	.
4G	.	4B	.
=100	=100	=100	=100
2.A	2r	4c	1e
.	.	4d	.
.	2c	2e	.
4G	.	.	.
2F	2A	2f	2d
2E	2G	[2g	2c#
=101	=101	=101	=101
0D	1A	2g]	1d
.	.	4f#	.
.	.	4e	.
.	2A	1f#	2r
.	2d	.	2A
=102	=102	=102	=102
1C	2.e	0g	2.c
.	4e	.	4c
1r	2e	.	2c
.	2B	.	2d
=103	=103	=103	=103
1r	2c	0r	2e
.	2A	.	2c
2r	2B	.	2d
2AA	[2c	.	4e
.	.	.	4d
=104	=104	=104	=104
2.C	4c]	0r	4e
.	4B	.	4f#
.	4A	.	1g
4C	4G	.	.
2C	1A	.	.
2D	.	.	2f#
=105	=105	=105	=105
2E	1G	2r	1g
2C	.	2e	.
2D	1r	2d	1r
4E	.	2c	.
4D	.	.	.
=106	=106	=106	=106
4E	0r	1B	2r
4F#	.	.	.
1G	.	.	2d
.	.	1A	2e
2F#	.	.	2d
=107	=107	=107	=107
1G	2r	1G	4B
.	.	.	4c
.	2d	.	4d
.	.	.	4B
1r	2e	1r	2c
.	2d	.	2B
=108	=108	=108	=108
2r	4B	0r	2G
.	4c	.	.
2G	4d	.	2g
.	4B	.	.
2A	2c	.	2f#
2G	2B	.	[2g
=109	=109	=109	=109
4E	4G	2r	4g]
4F	4A	.	4f
4G	4B	2g	2e
4E	4c	.	.
2F	2A	2a	2d
2E	2B	2g	[2e
=110	=110	=110	=110
4C	1c	4e	4e]
4D	.	4f	4d
4E	.	4g	1c
4C	.	4e	.
1D	2F	1f	.
.	2F	.	2B
=111	=111	=111	=111
1C	0G	1e	2c
.	.	.	1c
1r	.	1d	.
.	.	.	2B
=112	=112	=112	=112
0r	4C	2r	1e
.	4D	.	.
.	4E	1c	.
.	4F	.	.
.	1G	.	2e
.	.	2B	2d
=113	=113	=113	=113
0r	2r	1e	4c
.	.	.	4d
.	1c	.	4e
.	.	.	4f
.	.	2e	1g
.	2B	2d	.
=114	=114	=114	=114
2r	1e	4c	1g
.	.	4d	.
1C	.	4e	.
.	.	4f	.
.	2e	1g	1r
2BB	2d	.	.
=115	=115	=115	=115
1E	4c	1g	2r
.	4B	.	.
.	4G	.	2g
.	4A	.	.
2E	4B	1r	2g
.	4c	.	.
2D	2d	.	2f
=116	=116	=116	=116
4C	2.G	2r	2e
4D	.	.	.
4E	.	2g	2e
4F	4A	.	.
4G	1B	2g	1d
4A	.	.	.
4B	.	2g	.
4G	.	.	.
=117	=117	=117	=117
4A	1c	2f	4c
4B	.	.	4d
1c	.	2e	4e
.	.	.	4f
.	1G	1d	1g
2B	.	.	.
=118	=118	=118	=118
1A	2r	4c	2r
.	.	4d	.
.	2e	4e	2c
.	.	4f	.
1G	2e	[1g	2c
.	2d	.	2B
=119	=119	=119	=119
0r	2.c	1g]	2.e
.	4c	.	4e
.	2B	2r	2d
.	[2A	2c	[2f
=120	=120	=120	=120
1r	2A]	2c	4f]
.	.	.	4e
.	2G	2B	1e
2r	1F	2.A	.
2A	.	.	2d
.	.	4A	.
=121	=121	=121	=121
2A	2E	2B	1e
2G	2E	2.e	.
2.F	2.A	.	1r
.	.	4d	.
.	.	4d	.
4F	4A	8c	.
.	.	8d	.
=122	=122	=122	=122
2E	2G	2e	2r
1D	4F	2A	2f
.	4E	.	.
.	4F	1A	2f
.	4G	.	.
2C	[2A	.	2e
=123	=123	=123	=123
1BB	2A]	1r	2.d
.	2G#	.	.
.	.	.	4d
4AA	2A	2r	4c
4BB	.	.	4d
4C	2A	2c	4e
4D	.	.	4f
=124	=124	=124	=124
1E	2A	2c	1e
.	2G	2B	.
1r	2.c	2.A	1e
.	4c	4A	.
=125	=125	=125	=125
2r	2B	2G	0e
2c	1A	4A	.
.	.	4B	.
2c	.	4c	.
.	.	4d	.
2B	2G	[2e	.
=126	=126	=126	=126
2.A	1F	2e]	1r
.	.	2d	.
4A	.	.	.
2G	2E	2e	2r
[2F	2c	2A	2a
=127	=127	=127	=127
2F]	2F	2c	2a
2E	2G	2c	2g
1D	2A	2.d	2.f
.	2B	.	.
.	.	4d	4f
=128	=128	=128	=128
2C	2.c	2G	1e
2C	.	1g	.
.	4B	.	.
2D	2A	.	[1d
2D	[2B	2f	.
=129	=129	=129	=129
1E	2B]	0e	2d]
.	1A	.	2c
1E	.	.	1B
.	2G#	.	.
=130	=130	=130	=130
0AA	0A	0e	0c#
!! Et iterum
*Itenor	*Itenor	*Icalto	*Icant
!Tenor 2	!Tenor 1	!Altus	!Cantus
*clefGv2	*clefGv2	*clefG2	*clefG2
*k[]	*k[]	*k[]	*k[]
*A:aeo	*A:aeo	*A:aeo	*A:aeo
*M4/2	*M4/2	*M4/2	*M4/2
=131	=131	=131	=131
0r	0r	1d	1r
.	.	2.f	1a
.	.	4f	.
=132	=132	=132	=132
0r	0r	2f	2.cc
.	.	2e	.
.	.	.	4cc
.	.	2c	2cc
.	.	2d	2b
=133	=133	=133	=133
1r	0r	2B	2g
.	.	2A	2a
1A	.	4c	2e
.	.	4B	.
.	.	4c	2a
.	.	4d	.
=134	=134	=134	=134
2.c	0r	4e	4g
.	.	4f	4f
.	.	4g	4e
4c	.	4f	4f
2c	.	2e	4g
.	.	.	4a
2B	.	4d	4b
.	.	4c	4cc
=135	=135	=135	=135
2G	0r	2d	2b
2A	.	2c	1a
1E	.	1B	.
.	.	.	2g#
=136	=136	=136	=136
2.F	2r	1A	0a
.	2A	.	.
4G	.	.	.
2.A	2.c	2r	.
.	.	2e	.
8G	4c	.	.
8F	.	.	.
=137	=137	=137	=137
1E	2c	2.g	0r
.	2B	.	.
.	.	4g	.
1r	2G	2g	.
.	2A	2e	.
=138	=138	=138	=138
0r	4D	1f	1a
.	4E	.	.
.	4F	.	.
.	4G	.	.
.	4A	2.e	2.cc
.	4B	.	.
.	4c	.	.
.	4d	4f	4cc
=139	=139	=139	=139
1r	0e	1g	2cc
.	.	.	2b
2r	.	[1c	2g
2A	.	.	2a
=140	=140	=140	=140
2.c	2r	2c]	1e
.	1e	2A	.
4c	.	.	.
2c	.	2c	1r
2B	[2d	2d	.
=141	=141	=141	=141
2G	2d]	1e	2r
2A	2c	.	1a
1E	2B	2r	.
.	2c	[2e	[2g
=142	=142	=142	=142
1r	1d	2e]	2g]
.	.	1d	2f
2r	1A	.	2.e
[2e	.	2c	.
.	.	.	4f
=143	=143	=143	=143
2e]	1r	2B	2g
1d	.	2B	2d
.	2r	1A	2e
2c	[2e	.	2a
=144	=144	=144	=144
2B	2e]	1d	2a
2B	1d	.	2g#
1A	.	2e	1a
.	2c#	2e	.
=145	=145	=145	=145
2r	1d	2f#	2r
1d	.	1f#	1a
.	2r	.	.
2d	[2d	2f#	2a
=146	=146	=146	=146
1G	2d]	0g	4b
.	.	.	4cc
.	2d	.	4dd
.	.	.	4cc
1d	1G	.	4b
.	.	.	4a
.	.	.	2b
=147	=147	=147	=147
2r	2.d	2f	[0a
2d	.	2f	.
.	8c	.	.
.	8B	.	.
2d	1A	2f	.
2c#	.	2e	.
=148	=148	=148	=148
2.d	1D	1.f	1a]
4c	.	.	.
4A	1r	.	2r
4B	.	.	.
4c	.	2e	2a
4A	.	.	.
=149	=149	=149	=149
1B	2r	1d	2a
.	2d	.	2g#
1A	2d	1e	2.a
.	2c#	.	.
.	.	.	4g
=150	=150	=150	=150
1D	2.d	1r	4f
.	.	.	4e
.	.	.	1f
.	4c	.	.
1r	4A	2r	.
.	4B	.	.
.	4c	2a	2e
.	4A	.	.
=151	=151	=151	=151
1r	1B	2a	2d
.	.	2g#	1dd
2r	1A	2.a	.
2A	.	.	[2cc
.	.	4g	.
=152	=152	=152	=152
2A	2r	4e	2cc]
.	.	4f	.
2G	1d	4g	2b
.	.	4d	.
2.A	.	2f	1a
.	[2c	[2e	.
4G	.	.	.
=153	=153	=153	=153
4E	2c]	2e]	1g
4F	.	.	.
4G	2.B	4d	.
4E	.	4c	.
1F	.	4d	1r
.	4A	4c	.
.	[2A	4c	.
.	.	8B	.
.	.	8A	.
=154	=154	=154	=154
1E	2A]	1B	1r
.	2G#	.	.
2r	2A	2c#	2r
[2A	[2c#	[2e	[2a
=155	=155	=155	=155
2A]	2c#]	2e]	2a]
2A	2c#	2e	2a
1D	[1d	1f	1a
=156	=156	=156	=156
1A	2d]	1e	0a
.	4c#	.	.
.	4B	.	.
2r	2c#	2r	.
2d	2d	2f	.
=157	=157	=157	=157
2d	1A	2f	2r
2c#	.	2e	2a
2d	1r	2f	2a
2B	.	2d	2g#
=158	=158	=158	=158
1A	2r	2.e	2.a
.	2A	.	.
.	.	4d	4g
2r	2A	2c	4e
.	.	.	4f
[2d	2G	2B	4g
.	.	.	4d
=159	=159	=159	=159
4d]	2.A	1.A	2f
4c	.	.	.
4c	.	.	4e
8B	4G	.	4f
8A	.	.	.
2B	4E	.	4g
.	4F	.	4a
2G	4G	2e	[2b
.	4E	.	.
=160	=160	=160	=160
1A	1F	2e	4b]
.	.	.	4a
.	.	2d	1a
1B	1E	1e	.
.	.	.	2g#
=161	=161	=161	=161
0c#	0A	0e	0a
*-	*-	*-	*-
!! Et in Spiritum
**kern	**kern	**kern	**kern	**kern	**kern
*Ibass	*Itenor	*Itenor	*Icalto	*Icalto	*Icant
!Bassus	!Tenor 2	!Tenor 1	!Altus 2	!Altus 1	!Cantus
*clefF4	*clefGv2	*clefGv2	*clefG2	*clefG2	*clefG2
*k[]	*k[]	*k[]	*k[]	*k[]	*k[]
*A:aeo	*A:aeo	*A:aeo	*A:aeo	*A:aeo	*A:aeo
*M4/2	*M4/2	*M4/2	*M4/2	*M4/2	*M4/2
=162	=162	=162	=162	=162	=162
0E	0B	0r	0e	0r	0g#
=163	=163	=163	=163	=163	=163
1A	1c	0r	1e	0r	1a
2.G	2.d	.	2.g	.	2.b
4G	4d	.	4g	.	4b
=164	=164	=164	=164	=164	=164
2G	2d	0r	2g	0r	2b
1C	1e	.	1g	.	1cc
2G	2d	.	2g	.	2b
=165	=165	=165	=165	=165	=165
2A	2c	1r	2e	1r	2a
2F	2A	.	2d	.	2a
1E	1B	2r	2e	2r	2g
.	.	2E	2c	[2e	2g
=166	=166	=166	=166	=166	=166
0r	1r	2G	2B	4e]	2b
.	.	.	.	4d	.
.	.	1A	2A	4c	1cc
.	.	.	.	4B	.
.	2r	.	2.e	2A	.
.	[2e	2G	.	2B	2b
.	.	.	4d	.	.
=167	=167	=167	=167	=167	=167
0r	4e]	1.A	2c	1c	4a
.	4d	.	.	.	4b
.	4c	.	4A	.	4cc
.	4B	.	4B	.	4dd
.	2A	.	4c	1e	2cc
.	.	.	4d	.	.
.	2B	2G	2e	.	[2b
=168	=168	=168	=168	=168	=168
0r	2c	2F	1A	1f	4b]
.	.	.	.	.	4a
.	2d	2D	.	.	1a
.	1B	1E	1r	1e	.
.	.	.	.	.	2g#
!! qui ex Patre
*Ibass	*Itenor	*Itenor	*Icalto	*Icalto	*Icant
!Bassus	!Tenor 2	!Tenor 1	!Altus 2	!Altus 1	!Cantus
*clefF4	*clefGv2	*clefGv2	*clefG2	*clefG2	*clefG2
*k[]	*k[]	*k[]	*k[]	*k[]	*k[]
*A:aeo	*A:aeo	*A:aeo	*A:aeo	*A:aeo	*A:aeo
*M3/2	*M3/2	*M3/2	*M3/2	*M3/2	*M3/2
=169	=169	=169	=169	=169	=169
2r	1A	1c	1e	2r	2a
2A	.	.	.	2e	2cc
2A	2r	2A	2f#	2c	2cc
=170	=170	=170	=170	=170	=170
1G	1r	1B	1g	1d	1b
2C	2r	2c	2g	2e	2g
=171	=171	=171	=171	=171	=171
2.F	1r	2.A	2.f	2.c	2.a
4F	.	4A	4f	4c	4a
2F	2r	2F	2f	2c	2a
=172	=172	=172	=172	=172	=172
1C	1r	1G	1e	1c	1g
2GG	2r	2G	2d	2B	2g
=173	=173	=173	=173	=173	=173
1D	1r	2A	1d	1A	1f#
.	.	2d	.	.	.
2C	2r	2G	2e	2c	2g
=174	=174	=174	=174	=174	=174
1F	1c	2r	1a	2r	1r
.	.	2A	.	2f	.
2F	2c	2F	2a	2f	2r
=175	=175	=175	=175	=175	=175
2C	2c	2G	2g	2e	1r
2C	2c	2G	2g	2e	.
2E	2G	2r	2e	2B	2r
=176	=176	=176	=176	=176	=176
2.D	2.A	1r	2.f	2.d	1r
4D	4A	.	4f	4d	.
2D	2A	2r	2f	2d	2r
=177	=177	=177	=177	=177	=177
2.C	2.c	2.E	2.e	2.G	2.g
4C	4c	4E	4e	4G	4g
2C	2c	2E	2e	2G	2g
=178	=178	=178	=178	=178	=178
2C	2G	2C	2e	2c	2g
1GG	1G	1D	1d	1B	1g
=179	=179	=179	=179	=179	=179
1C	4G	2C	2e	2c	2g
.	4F	.	.	.	.
.	4E	2r	2r	1e	2r
.	4D	.	.	.	.
2r	2C	2c	2g	.	2cc
=180	=180	=180	=180	=180	=180
1r	1r	2.c	2.g	2.e	2.cc
.	.	4c	4g	4e	4cc
2r	2r	2c	2g	2e	2cc
=181	=181	=181	=181	=181	=181
1r	1r	2A	2f	2c	2cc
.	.	1G	1g	1d	1b
2r	2r	.	.	.	.
=182	=182	=182	=182	=182	=182
1C	1E	2c	2g	2e	2cc
.	.	2r	2e	2r	2g
2AA	2A	2r	2e	2r	2cc
=183	=183	=183	=183	=183	=183
1E	2G	2r	1e	1B	1b
.	2E	2G	.	.	.
2AA	4E	2c	2e	2e	2a
.	4F#	.	.	.	.
=184	=184	=184	=184	=184	=184
1E	4G	1B	1r	1e	1g
.	4A	.	.	.	.
.	2B	.	.	.	.
2AA	2c	2A	2r	2e	2a
=185	=185	=185	=185	=185	=185
4E	2B	1G	2r	2e	2b
4D	.	.	.	.	.
4C	1E	.	2r	2e	2.cc
4BB	.	.	.	.	.
4AA	.	2A	2e	[2c	.
4GG	.	.	.	.	4b
=186	=186	=186	=186	=186	=186
2AA	1.E	2c	2e	4c]	1a
.	.	.	.	4d	.
1E	.	1B	1e	2e	.
.	.	.	.	2B	2g#
!! Et unam Sanctam
*Ibass	*Itenor	*Itenor	*Icalto	*Icalto	*Icant
!Bassus	!Tenor 2	!Tenor 1	!Altus 2	!Altus 1	!Cantus
*clefF4	*clefGv2	*clefGv2	*clefG2	*clefG2	*clefG2
*k[]	*k[]	*k[]	*k[]	*k[]	*k[]
*A:aeo	*A:aeo	*A:aeo	*A:aeo	*A:aeo	*A:aeo
*M4/2	*M4/2	*M4/2	*M4/2	*M4/2	*M4/2
=187	=187	=187	=187	=187	=187
1AA	0r	0A	0e	2c	1a
.	.	.	.	2e	.
2r	.	.	.	2c	2r
2A	.	.	.	2c	2cc
=188	=188	=188	=188	=188	=188
2F	0r	0r	2r	1d	2a
2G	.	.	2g	.	2b
1A	.	.	2e	1c	1cc
.	.	.	2f#	.	.
=189	=189	=189	=189	=189	=189
2G	0r	0r	1g	1.d	2b
2G	.	.	.	.	2b
2D	.	.	2f	.	2.a
2F	.	.	2f	2c	.
.	.	.	.	.	4a
=190	=190	=190	=190	=190	=190
4C	0r	0r	2.e	2c	0g
4D	.	.	.	.	.
4E	.	.	.	2.c	.
4C	.	.	4e	.	.
1G	.	.	1d	.	.
.	.	.	.	8B	.
.	.	.	.	8A	.
.	.	.	.	2B	.
=191	=191	=191	=191	=191	=191
1C	2r	1r	1e	1c	2r
.	2c	.	.	.	2g
1r	2A	2r	2c	1r	2a
.	2B	2G	2d	.	2g
=192	=192	=192	=192	=192	=192
0r	2.c	2E	4e	2r	2g
.	.	.	4e	.	.
.	.	2F	2A	2f	2a
.	4c	.	.	.	.
.	2B	2.G	2r	2d	1g
.	2B	.	2B	2e	.
.	.	4G	.	.	.
=193	=193	=193	=193	=193	=193
0r	2A	2D	2d	2.f	1r
.	2A	2F	2c	.	.
.	.	.	.	4f	.
.	2G	4C	1c	2e	1g
.	.	4D	.	.	.
.	2c	4E	.	2e	.
.	.	4C	.	.	.
=194	=194	=194	=194	=194	=194
1r	2c	2G	1r	2d	2.g
.	2B	2G	.	2d	.
.	.	.	.	.	4g
2r	1c	1C	2r	1c	2e
2E	.	.	2e	.	2g
=195	=195	=195	=195	=195	=195
2F	0r	0r	2d	2r	2a
2G	.	.	2d	2g	2b
2A	.	.	2c	2e	2cc
2E	.	.	2B	2e	2g
=196	=196	=196	=196	=196	=196
2F	2r	0r	2A	1c	2a
2E	2G	.	2c	.	2g
1D	2A	.	1d	1r	1f
.	2B	.	.	.	.
=197	=197	=197	=197	=197	=197
1C	2c	2r	1G	1g	1e
.	2G	2c	.	.	.
1r	2A	2c	2r	2f	1r
.	2G	2B	2B	2e	.
=198	=198	=198	=198	=198	=198
1r	1F	1A	2c	1a	1r
.	.	.	2d	.	.
2r	1E	2B	1e	2.g	2r
2G	.	[2e	.	.	2b
.	.	.	.	4f	.
=199	=199	=199	=199	=199	=199
2A	0r	2e]	2.c	1e	2cc
1c	.	2A	.	.	1ee
.	.	.	4d	.	.
.	.	2c	4e	1r	.
.	.	.	4f	.	.
2B	.	2d	2g	.	2dd
=200	=200	=200	=200	=200	=200
2A	0r	2e	1r	1r	2cc
2G	.	2E	.	.	2b
2F	.	2r	2r	1c	2a
2E	.	2G	2e	.	2g
=201	=201	=201	=201	=201	=201
1D	0r	1A	2f	2d	2f
.	.	.	1a	1f	2d
1C	.	1c	.	.	2r
.	.	.	2g	2e	2e
=202	=202	=202	=202	=202	=202
1D	0r	1A	2f	2d	0f
.	.	.	2e	2c	.
1D	.	1r	2d	2B	.
.	.	.	2c	[2A	.
=203	=203	=203	=203	=203	=203
1E	2r	1r	1B	2A]	1e
.	2.e	.	.	2G#	.
1AA	.	2r	2c	1A	1e
.	4d	.	.	.	.
.	4c	[2A	[2e	.	.
.	4B	.	.	.	.
=204	=204	=204	=204	=204	=204
2r	2A	4A]	2e]	0r	0a
.	.	4G	.	.	.
1D	2A	4F	1f	.	.
.	.	4E	.	.	.
.	1A	2D	.	.	.
2C#	.	2E	2e	.	.
=205	=205	=205	=205	=205	=205
1D	1A	1F#	2.d	2r	1a
.	.	.	.	2.d	.
.	.	.	4c	.	.
2.GG	2r	1G	4B	.	2.dd
.	.	.	4A	4c	.
.	[2G	.	4B	4B	.
4AA	.	.	4c	4A	4cc
=206	=206	=206	=206	=206	=206
4BB	2G]	1D	0d	2G	2b
4GG	.	.	.	.	.
2D	2F#	.	.	2A	2a
1GG	1G	1r	.	1B	2g
.	.	.	.	.	[2g
=207	=207	=207	=207	=207	=207
2r	1C	0r	1e	2c	2g]
1C	.	.	.	1e	2g
.	2r	.	2r	.	2g
[2C	[2G	.	[2g	2e	2g
=208	=208	=208	=208	=208	=208
2C]	2G]	0r	2g]	1e	1cc
2C	2G	.	2g	.	.
1GG	2G	.	2g	1d	1b
.	2G	.	2g	.	.
=209	=209	=209	=209	=209	=209
1AA	1c	2.E	1e	2c	1.a
.	.	.	.	2A	.
.	.	4E	.	.	.
1r	1B	2E	1e	1r	.
.	.	2E	.	.	2g
=210	=210	=210	=210	=210	=210
0r	2A	2A	2c	0r	2f
.	2G	2B	2.B	.	1e
.	1F	2c	.	.	.
.	.	.	4A	.	.
.	.	2A	[2A	.	2d
=211	=211	=211	=211	=211	=211
1r	2E	1B	2A]	1r	2e
.	2E	.	2G#	.	2b
1AA	1A	2A	[1A	1e	1cc
.	.	2c	.	.	.
=212	=212	=212	=212	=212	=212
1D	2.F	1d	1A]	1f	1a
.	4G	.	.	.	.
2AA	1A	1e	1r	2e	1cc
2A	.	.	.	2c	.
=213	=213	=213	=213	=213	=213
2G	0r	2r	0r	1d	2b
2F	.	2A	.	.	2a
2.E	.	2B	.	2e	2.g
.	.	2B	.	[2g	.
4D	.	.	.	.	4f
=214	=214	=214	=214	=214	=214
2C	0r	2.c	0r	4g]	2e
.	.	.	.	4f	.
2.C	.	.	.	2e	1cc
.	.	4d	.	.	.
.	.	1e	.	[1g	.
4D	.	.	.	.	.
4E	.	.	.	.	4b
4F	.	.	.	.	4a
=215	=215	=215	=215	=215	=215
2G	0r	2.d	0r	2g]	2b
2D	.	.	.	2f	1a
.	.	4c	.	.	.
1E	.	1B	.	2.e	.
.	.	.	.	.	2g#
.	.	.	.	4d	.
=216	=216	=216	=216	=216	=216
0AA	2r	1A	1e	1c#	1a
.	2E	.	.	.	.
.	1A	1r	1e	1c#	2r
.	.	.	.	.	2a
=217	=217	=217	=217	=217	=217
0r	2D	0r	2f	1d	1a
.	2d	.	2f	.	.
.	2c	.	1g	2e	2cc
.	2B	.	.	2d	2dd
=218	=218	=218	=218	=218	=218
0r	2.A	0r	1a	2e	2cc
.	.	.	.	2e	2b
.	4G	.	.	.	.
.	2F	.	2r	2.f	2.a
.	[2F	.	[2a	.	.
.	.	.	.	4g	4g
=219	=219	=219	=219	=219	=219
0r	4F]	0r	4a]	1a	2f
.	4G	.	4g	.	.
.	4A	.	2f	.	1cc
.	4B	.	.	.	.
.	2c	.	2e	1g	.
.	2G	.	[2d	.	2b
=220	=220	=220	=220	=220	=220
1r	1A	2r	2d]	1e	2.a
.	.	2.A	2c#	.	.
.	.	.	.	.	4g
2r	1D	.	1d	2.a	4f
.	.	4G	.	.	4e
[2D	.	4F	.	.	2d
.	.	4E	.	4g	.
=221	=221	=221	=221	=221	=221
2D]	1r	2D	2r	2f	0a
2C#	.	2E	2.A	1e	.
1D	2r	1F	.	.	.
.	.	.	4G	.	.
.	[2A	.	4A	2d	.
.	.	.	4B	.	.
=222	=222	=222	=222	=222	=222
1AA	4A]	[0E	2c	[0e	2r
.	4G	.	.	.	.
.	4A	.	2A	.	2.ee
.	4B	.	.	.	.
[1AA	2c	.	2.e	.	.
.	.	.	.	.	4dd
.	2A	.	.	.	4cc
.	.	.	4d	.	4b
=223	=223	=223	=223	=223	=223
2AA]	2.e	0E]	2c	0e]	2a
2GG#	.	.	2B	.	2b
.	4d	.	.	.	.
1AA	4c	.	1A	.	1cc
.	4B	.	.	.	.
.	[2A	.	.	.	.
=224	=224	=224	=224	=224	=224
[0E	2A]	[0E	[0B	[0e	[0b
.	4G#	.	.	.	.
.	4F#	.	.	.	.
.	1G#	.	.	.	.
=225	=225	=225	=225	=225	=225
0E]	0G#	0E]	0B]	0e]	0b]
==	==	==	==	==	==
*-	*-	*-	*-	*-	*-
!!!CDT: 1525/^1526/-1594/2/2
!!!OCY: Italia
!!!AGN: Mass (Paraphrase)
!!!AST: renaissance, vocal
!!!ASW: Hymn
!!!PWK: Masses, Book 9
!!!RNB: Cadence finals: G,E,D
!!!YOR: Le Opere Complete, v. 25, p. 172
!!!YOO: Rome, Italy: Fratelli Scalera
!!!END: 1992//
!!!EED: John Miller
!!!YEC: Copyright 2000, John Miller
!!!YEN: United States of America
!!!YEM: Rights to all derivative electronic formats reserved.
!!!YEM: Refer to licensing agreement for further details.
!!!YEM: This file must be accompanied by the licensing agreement.
!!!YEM: A copy of the licensing agreement may be found at http://www.music-cog.ohio-state.edu/HumdrumDatabases/Palestrina/license.txt
!!!EMD: converted to Humdrum by Bret Aarden
